images/50866480.svg

<?xml version="1.0" encoding="UTF-8"?>
<svg xmlns="http://www.w3.org/2000/svg" xmlns:xlink="http://www.w3.org/1999/xlink" width="300pt" height="300pt" viewBox="0 0 300 300" version="1.1">
<defs>
<g>
<symbol overflow="visible" id="glyph0-0">
<path style="stroke:none;" d="M 0.453125 1.59375 L 0.453125 -6.34375 L 4.953125 -6.34375 L 4.953125 1.59375 Z M 0.953125 1.09375 L 4.453125 1.09375 L 4.453125 -5.84375 L 0.953125 -5.84375 Z M 0.953125 1.09375 "/>
</symbol>
<symbol overflow="visible" id="glyph0-1">
<path style="stroke:none;" d="M 0.890625 -6.5625 L 4.65625 -6.5625 L 4.65625 -5.8125 L 1.765625 -5.8125 L 1.765625 -3.875 L 4.375 -3.875 L 4.375 -3.140625 L 1.765625 -3.140625 L 1.765625 0 L 0.890625 0 Z M 0.890625 -6.5625 "/>
</symbol>
<symbol overflow="visible" id="glyph0-2">
<path style="stroke:none;" d="M 0.890625 -6.5625 L 2.078125 -6.5625 L 4.984375 -1.078125 L 4.984375 -6.5625 L 5.84375 -6.5625 L 5.84375 0 L 4.65625 0 L 1.75 -5.484375 L 1.75 0 L 0.890625 0 Z M 0.890625 -6.5625 "/>
</symbol>
<symbol overflow="visible" id="glyph0-3">
<path style="stroke:none;" d="M 0.890625 -6.5625 L 1.765625 -6.5625 L 1.765625 -3.875 L 5 -3.875 L 5 -6.5625 L 5.890625 -6.5625 L 5.890625 0 L 5 0 L 5 -3.125 L 1.765625 -3.125 L 1.765625 0 L 0.890625 0 Z M 0.890625 -6.5625 "/>
</symbol>
<symbol overflow="visible" id="glyph0-4">
<path style="stroke:none;" d="M 3.546875 -5.953125 C 2.898438 -5.953125 2.382812 -5.710938 2 -5.234375 C 1.625 -4.753906 1.4375 -4.101562 1.4375 -3.28125 C 1.4375 -2.445312 1.625 -1.789062 2 -1.3125 C 2.382812 -0.832031 2.898438 -0.59375 3.546875 -0.59375 C 4.191406 -0.59375 4.703125 -0.832031 5.078125 -1.3125 C 5.453125 -1.789062 5.640625 -2.445312 5.640625 -3.28125 C 5.640625 -4.101562 5.453125 -4.753906 5.078125 -5.234375 C 4.703125 -5.710938 4.191406 -5.953125 3.546875 -5.953125 Z M 3.546875 -6.6875 C 4.460938 -6.6875 5.195312 -6.375 5.75 -5.75 C 6.300781 -5.132812 6.578125 -4.3125 6.578125 -3.28125 C 6.578125 -2.238281 6.300781 -1.410156 5.75 -0.796875 C 5.195312 -0.179688 4.460938 0.125 3.546875 0.125 C 2.617188 0.125 1.878906 -0.179688 1.328125 -0.796875 C 0.773438 -1.410156 0.5 -2.238281 0.5 -3.28125 C 0.5 -4.3125 0.773438 -5.132812 1.328125 -5.75 C 1.878906 -6.375 2.617188 -6.6875 3.546875 -6.6875 Z M 3.546875 -6.6875 "/>
</symbol>
</g>
</defs>
<g id="surface21569">
<rect x="0" y="0" width="300" height="300" style="fill:rgb(100%,100%,100%);fill-opacity:1;stroke:none;"/>
<path style="fill:none;stroke-width:1.2;stroke-linecap:butt;stroke-linejoin:miter;stroke:rgb(20%,80%,80%);stroke-opacity:1;stroke-miterlimit:10;" d="M 35.25 170.445312 L 45.378906 165.652344 "/>
<path style="fill:none;stroke-width:1.2;stroke-linecap:butt;stroke-linejoin:miter;stroke:rgb(0%,0%,0%);stroke-opacity:1;stroke-miterlimit:10;" d="M 45.378906 165.652344 L 55.507812 160.863281 "/>
<path style=" stroke:none;fill-rule:nonzero;fill:rgb(100%,100%,100%);fill-opacity:1;" d="M 29.25 164.945312 L 35.25 164.945312 L 35.25 175.945312 L 29.25 175.945312 Z M 29.25 164.945312 "/>
<g style="fill:rgb(20%,80%,80%);fill-opacity:1;">
  <use xlink:href="#glyph0-1" x="29.25" y="173.608398"/>
</g>
<path style="fill:none;stroke-width:1.2;stroke-linecap:butt;stroke-linejoin:miter;stroke:rgb(0%,0%,0%);stroke-opacity:1;stroke-miterlimit:10;" d="M 55.507812 160.863281 L 57.335938 138.527344 "/>
<path style="fill:none;stroke-width:1.2;stroke-linecap:butt;stroke-linejoin:miter;stroke:rgb(0%,0%,0%);stroke-opacity:1;stroke-miterlimit:10;" d="M 60.945312 159.058594 L 62.410156 141.1875 "/>
<path style="fill:none;stroke-width:1.2;stroke-linecap:butt;stroke-linejoin:miter;stroke:rgb(0%,0%,0%);stroke-opacity:1;stroke-miterlimit:10;" d="M 73.9375 173.613281 L 55.507812 160.863281 "/>
<path style="fill:none;stroke-width:1.2;stroke-linecap:butt;stroke-linejoin:miter;stroke:rgb(0%,0%,0%);stroke-opacity:1;stroke-miterlimit:10;" d="M 57.335938 138.527344 L 77.59375 128.941406 "/>
<path style="fill:none;stroke-width:1.2;stroke-linecap:butt;stroke-linejoin:miter;stroke:rgb(0%,0%,0%);stroke-opacity:1;stroke-miterlimit:10;" d="M 77.59375 128.941406 L 96.023438 141.691406 "/>
<path style="fill:none;stroke-width:1.2;stroke-linecap:butt;stroke-linejoin:miter;stroke:rgb(0%,0%,0%);stroke-opacity:1;stroke-miterlimit:10;" d="M 76.4375 134.550781 L 91.179688 144.753906 "/>
<path style="fill:none;stroke-width:1.2;stroke-linecap:butt;stroke-linejoin:miter;stroke:rgb(0%,0%,0%);stroke-opacity:1;stroke-miterlimit:10;" d="M 96.023438 141.691406 L 106.152344 136.898438 "/>
<path style="fill:none;stroke-width:1.2;stroke-linecap:butt;stroke-linejoin:miter;stroke:rgb(0%,0%,100%);stroke-opacity:1;stroke-miterlimit:10;" d="M 106.152344 136.898438 L 116.28125 132.109375 "/>
<path style="fill:none;stroke-width:1.2;stroke-linecap:butt;stroke-linejoin:miter;stroke:rgb(0%,0%,0%);stroke-opacity:1;stroke-miterlimit:10;" d="M 96.023438 141.691406 L 94.195312 164.027344 "/>
<path style="fill:none;stroke-width:1.2;stroke-linecap:butt;stroke-linejoin:miter;stroke:rgb(0%,0%,100%);stroke-opacity:1;stroke-miterlimit:10;" d="M 116.28125 132.109375 L 120.433594 110.085938 "/>
<path style="fill:none;stroke-width:1.2;stroke-linecap:butt;stroke-linejoin:miter;stroke:rgb(0%,0%,0%);stroke-opacity:1;stroke-miterlimit:10;" d="M 135.941406 142.863281 L 126.113281 137.484375 "/>
<path style="fill:none;stroke-width:1.2;stroke-linecap:butt;stroke-linejoin:miter;stroke:rgb(0%,0%,100%);stroke-opacity:1;stroke-miterlimit:10;" d="M 126.113281 137.484375 L 116.28125 132.109375 "/>
<path style=" stroke:none;fill-rule:nonzero;fill:rgb(100%,100%,100%);fill-opacity:1;" d="M 113.28125 126.609375 L 120.28125 126.609375 L 120.28125 137.609375 L 113.28125 137.609375 Z M 113.28125 126.609375 "/>
<g style="fill:rgb(0%,0%,100%);fill-opacity:1;">
  <use xlink:href="#glyph0-2" x="113.28125" y="135.272461"/>
</g>
<path style="fill:none;stroke-width:1.2;stroke-linecap:butt;stroke-linejoin:miter;stroke:rgb(0%,0%,100%);stroke-opacity:1;stroke-miterlimit:10;" d="M 120.433594 110.085938 L 131.546875 108.65625 "/>
<path style="fill:none;stroke-width:1.2;stroke-linecap:butt;stroke-linejoin:miter;stroke:rgb(0%,0%,0%);stroke-opacity:1;stroke-miterlimit:10;" d="M 131.546875 108.65625 L 142.664062 107.230469 "/>
<path style="fill:none;stroke-width:1.2;stroke-linecap:butt;stroke-linejoin:miter;stroke:rgb(0%,0%,100%);stroke-opacity:1;stroke-miterlimit:10;" d="M 123.328125 115.03125 L 132.21875 113.886719 "/>
<path style="fill:none;stroke-width:1.2;stroke-linecap:butt;stroke-linejoin:miter;stroke:rgb(0%,0%,0%);stroke-opacity:1;stroke-miterlimit:10;" d="M 132.21875 113.886719 L 141.113281 112.746094 "/>
<path style=" stroke:none;fill-rule:nonzero;fill:rgb(100%,100%,100%);fill-opacity:1;" d="M 117.433594 104.585938 L 124.433594 104.585938 L 124.433594 115.585938 L 117.433594 115.585938 Z M 117.433594 104.585938 "/>
<g style="fill:rgb(0%,0%,100%);fill-opacity:1;">
  <use xlink:href="#glyph0-2" x="117.433594" y="113.249023"/>
</g>
<path style="fill:none;stroke-width:1.2;stroke-linecap:butt;stroke-linejoin:miter;stroke:rgb(0%,0%,0%);stroke-opacity:1;stroke-miterlimit:10;" d="M 142.664062 107.230469 L 152.246094 127.488281 "/>
<path style="fill:none;stroke-width:1.2;stroke-linecap:butt;stroke-linejoin:miter;stroke:rgb(0%,0%,0%);stroke-opacity:1;stroke-miterlimit:10;" d="M 152.246094 127.488281 L 135.941406 142.863281 "/>
<path style="fill:none;stroke-width:1.2;stroke-linecap:butt;stroke-linejoin:miter;stroke:rgb(0%,0%,0%);stroke-opacity:1;stroke-miterlimit:10;" d="M 154.234375 132.859375 L 141.191406 145.160156 "/>
<path style="fill:none;stroke-width:1.2;stroke-linecap:butt;stroke-linejoin:miter;stroke:rgb(0%,0%,0%);stroke-opacity:1;stroke-miterlimit:10;" d="M 173.714844 133.917969 L 152.246094 127.488281 "/>
<path style="fill:none;stroke-width:1.2;stroke-linecap:butt;stroke-linejoin:miter;stroke:rgb(0%,0%,0%);stroke-opacity:1;stroke-miterlimit:10;" d="M 135.941406 142.863281 L 138.523438 153.765625 "/>
<path style="fill:none;stroke-width:1.2;stroke-linecap:butt;stroke-linejoin:miter;stroke:rgb(0%,0%,100%);stroke-opacity:1;stroke-miterlimit:10;" d="M 138.523438 153.765625 L 141.105469 164.671875 "/>
<path style="fill:none;stroke-width:1.2;stroke-linecap:butt;stroke-linejoin:miter;stroke:rgb(0%,0%,100%);stroke-opacity:1;stroke-miterlimit:10;" d="M 141.105469 164.671875 L 151.839844 167.886719 "/>
<path style="fill:none;stroke-width:1.2;stroke-linecap:butt;stroke-linejoin:miter;stroke:rgb(0%,0%,0%);stroke-opacity:1;stroke-miterlimit:10;" d="M 151.839844 167.886719 L 162.574219 171.101562 "/>
<path style="fill:none;stroke-width:1.2;stroke-linecap:butt;stroke-linejoin:miter;stroke:rgb(0%,0%,100%);stroke-opacity:1;stroke-miterlimit:10;" d="M 144.765625 160.261719 L 153.351562 162.835938 "/>
<path style="fill:none;stroke-width:1.2;stroke-linecap:butt;stroke-linejoin:miter;stroke:rgb(0%,0%,0%);stroke-opacity:1;stroke-miterlimit:10;" d="M 153.351562 162.835938 L 161.941406 165.410156 "/>
<path style=" stroke:none;fill-rule:nonzero;fill:rgb(100%,100%,100%);fill-opacity:1;" d="M 138.105469 159.171875 L 145.105469 159.171875 L 145.105469 170.171875 L 138.105469 170.171875 Z M 138.105469 159.171875 "/>
<g style="fill:rgb(0%,0%,100%);fill-opacity:1;">
  <use xlink:href="#glyph0-2" x="138.105469" y="167.834961"/>
</g>
<path style="fill:none;stroke-width:1.2;stroke-linecap:butt;stroke-linejoin:miter;stroke:rgb(0%,0%,0%);stroke-opacity:1;stroke-miterlimit:10;" d="M 162.574219 171.101562 L 170.726562 163.414062 "/>
<path style="fill:none;stroke-width:1.2;stroke-linecap:butt;stroke-linejoin:miter;stroke:rgb(0%,0%,100%);stroke-opacity:1;stroke-miterlimit:10;" d="M 170.726562 163.414062 L 178.878906 155.726562 "/>
<path style="fill:none;stroke-width:1.2;stroke-linecap:butt;stroke-linejoin:miter;stroke:rgb(0%,0%,100%);stroke-opacity:1;stroke-miterlimit:10;" d="M 178.878906 155.726562 L 176.296875 144.824219 "/>
<path style="fill:none;stroke-width:1.2;stroke-linecap:butt;stroke-linejoin:miter;stroke:rgb(0%,0%,0%);stroke-opacity:1;stroke-miterlimit:10;" d="M 176.296875 144.824219 L 173.714844 133.917969 "/>
<path style="fill:none;stroke-width:1.2;stroke-linecap:butt;stroke-linejoin:miter;stroke:rgb(0%,0%,100%);stroke-opacity:1;stroke-miterlimit:10;" d="M 173.230469 154.761719 L 171.164062 146.039062 "/>
<path style="fill:none;stroke-width:1.2;stroke-linecap:butt;stroke-linejoin:miter;stroke:rgb(0%,0%,0%);stroke-opacity:1;stroke-miterlimit:10;" d="M 171.164062 146.039062 L 169.101562 137.316406 "/>
<path style=" stroke:none;fill-rule:nonzero;fill:rgb(100%,100%,100%);fill-opacity:1;" d="M 175.878906 150.226562 L 182.878906 150.226562 L 182.878906 161.226562 L 175.878906 161.226562 Z M 175.878906 150.226562 "/>
<g style="fill:rgb(0%,0%,100%);fill-opacity:1;">
  <use xlink:href="#glyph0-2" x="175.878906" y="158.889648"/>
</g>
<path style="fill:none;stroke-width:1.2;stroke-linecap:butt;stroke-linejoin:miter;stroke:rgb(0%,0%,0%);stroke-opacity:1;stroke-miterlimit:10;" d="M 173.714844 133.917969 L 181.867188 126.230469 "/>
<path style="fill:none;stroke-width:1.2;stroke-linecap:butt;stroke-linejoin:miter;stroke:rgb(0%,0%,100%);stroke-opacity:1;stroke-miterlimit:10;" d="M 181.867188 126.230469 L 190.019531 118.542969 "/>
<path style="fill:none;stroke-width:1.2;stroke-linecap:butt;stroke-linejoin:miter;stroke:rgb(0%,0%,100%);stroke-opacity:1;stroke-miterlimit:10;" d="M 190.019531 118.542969 L 200.753906 121.761719 "/>
<path style="fill:none;stroke-width:1.2;stroke-linecap:butt;stroke-linejoin:miter;stroke:rgb(0%,0%,0%);stroke-opacity:1;stroke-miterlimit:10;" d="M 200.753906 121.761719 L 211.488281 124.976562 "/>
<path style=" stroke:none;fill-rule:nonzero;fill:rgb(100%,100%,100%);fill-opacity:1;" d="M 183.019531 113.042969 L 197.019531 113.042969 L 197.019531 124.042969 L 183.019531 124.042969 Z M 183.019531 113.042969 "/>
<g style="fill:rgb(0%,0%,100%);fill-opacity:1;">
  <use xlink:href="#glyph0-2" x="183.019531" y="121.706055"/>
  <use xlink:href="#glyph0-3" x="189.99707" y="121.706055"/>
</g>
<path style="fill:none;stroke-width:1.2;stroke-linecap:butt;stroke-linejoin:miter;stroke:rgb(0%,0%,0%);stroke-opacity:1;stroke-miterlimit:10;" d="M 211.488281 124.976562 L 216.652344 146.785156 "/>
<path style="fill:none;stroke-width:1.2;stroke-linecap:butt;stroke-linejoin:miter;stroke:rgb(0%,0%,0%);stroke-opacity:1;stroke-miterlimit:10;" d="M 217.136719 125.941406 L 221.265625 143.386719 "/>
<path style="fill:none;stroke-width:1.2;stroke-linecap:butt;stroke-linejoin:miter;stroke:rgb(0%,0%,0%);stroke-opacity:1;stroke-miterlimit:10;" d="M 227.792969 109.601562 L 211.488281 124.976562 "/>
<path style="fill:none;stroke-width:1.2;stroke-linecap:butt;stroke-linejoin:miter;stroke:rgb(0%,0%,0%);stroke-opacity:1;stroke-miterlimit:10;" d="M 216.652344 146.785156 L 238.117188 153.214844 "/>
<path style="fill:none;stroke-width:1.2;stroke-linecap:butt;stroke-linejoin:miter;stroke:rgb(0%,0%,0%);stroke-opacity:1;stroke-miterlimit:10;" d="M 238.117188 153.214844 L 254.421875 137.839844 "/>
<path style="fill:none;stroke-width:1.2;stroke-linecap:butt;stroke-linejoin:miter;stroke:rgb(0%,0%,0%);stroke-opacity:1;stroke-miterlimit:10;" d="M 236.132812 147.84375 L 249.175781 135.542969 "/>
<path style="fill:none;stroke-width:1.2;stroke-linecap:butt;stroke-linejoin:miter;stroke:rgb(0%,0%,0%);stroke-opacity:1;stroke-miterlimit:10;" d="M 238.117188 153.214844 L 243.28125 175.023438 "/>
<path style="fill:none;stroke-width:1.2;stroke-linecap:butt;stroke-linejoin:miter;stroke:rgb(0%,0%,0%);stroke-opacity:1;stroke-miterlimit:10;" d="M 254.421875 137.839844 L 249.257812 116.03125 "/>
<path style="fill:none;stroke-width:1.2;stroke-linecap:butt;stroke-linejoin:miter;stroke:rgb(0%,0%,0%);stroke-opacity:1;stroke-miterlimit:10;" d="M 249.257812 116.03125 L 227.792969 109.601562 "/>
<path style="fill:none;stroke-width:1.2;stroke-linecap:butt;stroke-linejoin:miter;stroke:rgb(0%,0%,0%);stroke-opacity:1;stroke-miterlimit:10;" d="M 245.597656 120.441406 L 228.425781 115.292969 "/>
<path style="fill:none;stroke-width:1.2;stroke-linecap:butt;stroke-linejoin:miter;stroke:rgb(0%,0%,0%);stroke-opacity:1;stroke-miterlimit:10;" d="M 227.792969 109.601562 L 222.628906 87.792969 "/>
<path style="fill:none;stroke-width:1.2;stroke-linecap:butt;stroke-linejoin:miter;stroke:rgb(0%,0%,0%);stroke-opacity:1;stroke-miterlimit:10;" d="M 242.523438 177.550781 L 253.257812 180.765625 "/>
<path style="fill:none;stroke-width:1.2;stroke-linecap:butt;stroke-linejoin:miter;stroke:rgb(100%,0%,0%);stroke-opacity:1;stroke-miterlimit:10;" d="M 253.257812 180.765625 L 263.992188 183.980469 "/>
<path style="fill:none;stroke-width:1.2;stroke-linecap:butt;stroke-linejoin:miter;stroke:rgb(0%,0%,0%);stroke-opacity:1;stroke-miterlimit:10;" d="M 244.039062 172.5 L 254.773438 175.714844 "/>
<path style="fill:none;stroke-width:1.2;stroke-linecap:butt;stroke-linejoin:miter;stroke:rgb(100%,0%,0%);stroke-opacity:1;stroke-miterlimit:10;" d="M 254.773438 175.714844 L 265.507812 178.929688 "/>
<path style="fill:none;stroke-width:1.2;stroke-linecap:butt;stroke-linejoin:miter;stroke:rgb(0%,0%,0%);stroke-opacity:1;stroke-miterlimit:10;" d="M 243.28125 175.023438 L 235.128906 182.710938 "/>
<path style="fill:none;stroke-width:1.2;stroke-linecap:butt;stroke-linejoin:miter;stroke:rgb(0%,0%,100%);stroke-opacity:1;stroke-miterlimit:10;" d="M 235.128906 182.710938 L 226.976562 190.398438 "/>
<path style=" stroke:none;fill-rule:nonzero;fill:rgb(100%,100%,100%);fill-opacity:1;" d="M 260.75 175.957031 L 268.75 175.957031 L 268.75 186.957031 L 260.75 186.957031 Z M 260.75 175.957031 "/>
<g style="fill:rgb(100%,0%,0%);fill-opacity:1;">
  <use xlink:href="#glyph0-4" x="260.75" y="184.620117"/>
</g>
<path style="fill:none;stroke-width:1.2;stroke-linecap:butt;stroke-linejoin:miter;stroke:rgb(0%,0%,100%);stroke-opacity:1;stroke-miterlimit:10;" d="M 226.976562 190.398438 L 229.558594 201.304688 "/>
<path style="fill:none;stroke-width:1.2;stroke-linecap:butt;stroke-linejoin:miter;stroke:rgb(0%,0%,0%);stroke-opacity:1;stroke-miterlimit:10;" d="M 229.558594 201.304688 L 232.140625 212.207031 "/>
<path style=" stroke:none;fill-rule:nonzero;fill:rgb(100%,100%,100%);fill-opacity:1;" d="M 219.976562 184.898438 L 233.976562 184.898438 L 233.976562 195.898438 L 219.976562 195.898438 Z M 219.976562 184.898438 "/>
<g style="fill:rgb(0%,0%,100%);fill-opacity:1;">
  <use xlink:href="#glyph0-2" x="219.976562" y="193.561523"/>
  <use xlink:href="#glyph0-3" x="226.954102" y="193.561523"/>
</g>
<path style="fill:none;stroke-width:1.2;stroke-linecap:butt;stroke-linejoin:miter;stroke:rgb(0%,0%,0%);stroke-opacity:1;stroke-miterlimit:10;" d="M 94.195312 164.027344 L 73.9375 173.613281 "/>
<path style="fill:none;stroke-width:1.2;stroke-linecap:butt;stroke-linejoin:miter;stroke:rgb(0%,0%,0%);stroke-opacity:1;stroke-miterlimit:10;" d="M 89.914062 160.21875 L 73.707031 167.886719 "/>
</g>
</svg>

<svg xmlns="http://www.w3.org/2000/svg" xmlns:xlink="http://www.w3.org/1999/xlink" width="300pt" height="300pt" viewBox="0 0 300 300"><defs><symbol overflow="visible"><path d="M.453 1.594v-7.938h4.5v7.938zm.5-.5h3.5v-6.938h-3.5zm0 0"/></symbol><symbol overflow="visible" id="a"><path d="M.89-6.563h3.766v.75h-2.89v1.938h2.61v.734h-2.61V0H.89zm0 0"/></symbol><symbol overflow="visible" id="b"><path d="M.89-6.563H2.08l2.906 5.485v-5.484h.86V0H4.656L1.75-5.484V0H.89zm0 0"/></symbol><symbol overflow="visible" id="c"><path d="M.89-6.563h.876v2.688H5v-2.688h.89V0H5v-3.125H1.766V0H.89zm0 0"/></symbol><symbol overflow="visible" id="d"><path d="M3.547-5.953c-.65 0-1.164.242-1.547.72-.375.48-.563 1.13-.563 1.952 0 .835.188 1.49.563 1.967.383.48.898.72 1.547.72.644 0 1.156-.24 1.53-.72.376-.476.564-1.132.564-1.968 0-.822-.187-1.474-.562-1.954-.375-.477-.887-.72-1.53-.72zm0-.734c.914 0 1.648.312 2.203.937.55.617.828 1.438.828 2.47 0 1.042-.277 1.87-.828 2.483-.555.617-1.29.922-2.203.922-.93 0-1.668-.305-2.22-.922C.774-1.41.5-2.237.5-3.28c0-1.033.273-1.853.828-2.47.55-.625 1.29-.938 2.22-.938zm0 0"/></symbol></defs><g><path fill="#fff" d="M0 0h300v300H0z"/><path d="M35.25 170.445l10.13-4.793" stroke-width="1.2" stroke="#3cc" stroke-miterlimit="10" fill="none"/><path d="M45.38 165.652l10.128-4.79" stroke-width="1.2" stroke="#000" stroke-miterlimit="10" fill="none"/><path d="M29.25 164.945h6v11h-6zm0 0" fill="#fff"/><use xlink:href="#a" x="29.25" y="173.608" fill="#3cc"/><path d="M55.508 160.863l1.828-22.336M60.945 159.06l1.465-17.873M73.938 173.613l-18.43-12.75M57.336 138.527l20.258-9.586M77.594 128.94l18.43 12.75M76.438 134.55l14.742 10.204M96.023 141.69l10.13-4.792" stroke-width="1.2" stroke="#000" stroke-miterlimit="10" fill="none"/><path d="M106.152 136.898l10.13-4.79" stroke-width="1.2" stroke="#00f" stroke-miterlimit="10" fill="none"/><path d="M96.023 141.69l-1.828 22.337" stroke-width="1.2" stroke="#000" stroke-miterlimit="10" fill="none"/><path d="M116.28 132.11l4.154-22.024" stroke-width="1.2" stroke="#00f" stroke-miterlimit="10" fill="none"/><path d="M135.94 142.863l-9.827-5.38" stroke-width="1.2" stroke="#000" stroke-miterlimit="10" fill="none"/><path d="M126.113 137.484l-9.832-5.375" stroke-width="1.2" stroke="#00f" stroke-miterlimit="10" fill="none"/><path d="M113.28 126.61h7v11h-7zm0 0" fill="#fff"/><use xlink:href="#b" x="113.281" y="135.272" fill="#00f"/><path d="M120.434 110.086l11.113-1.43" stroke-width="1.2" stroke="#00f" stroke-miterlimit="10" fill="none"/><path d="M131.547 108.656l11.117-1.426" stroke-width="1.2" stroke="#000" stroke-miterlimit="10" fill="none"/><path d="M123.328 115.03l8.89-1.143" stroke-width="1.2" stroke="#00f" stroke-miterlimit="10" fill="none"/><path d="M132.22 113.887l8.893-1.14" stroke-width="1.2" stroke="#000" stroke-miterlimit="10" fill="none"/><path d="M117.434 104.586h7v11h-7zm0 0" fill="#fff"/><use xlink:href="#b" x="117.434" y="113.249" fill="#00f"/><path d="M142.664 107.23l9.582 20.258M152.246 127.488l-16.305 15.375M154.234 132.86l-13.043 12.3M173.715 133.918l-21.47-6.43M135.94 142.863l2.583 10.903" stroke-width="1.2" stroke="#000" stroke-miterlimit="10" fill="none"/><path d="M138.523 153.766l2.582 10.906M141.105 164.672l10.735 3.215" stroke-width="1.2" stroke="#00f" stroke-miterlimit="10" fill="none"/><path d="M151.84 167.887l10.734 3.215" stroke-width="1.2" stroke="#000" stroke-miterlimit="10" fill="none"/><path d="M144.766 160.262l8.586 2.574" stroke-width="1.2" stroke="#00f" stroke-miterlimit="10" fill="none"/><path d="M153.352 162.836l8.59 2.574" stroke-width="1.2" stroke="#000" stroke-miterlimit="10" fill="none"/><path d="M138.105 159.172h7v11h-7zm0 0" fill="#fff"/><use xlink:href="#b" x="138.105" y="167.835" fill="#00f"/><path d="M162.574 171.102l8.153-7.688" stroke-width="1.2" stroke="#000" stroke-miterlimit="10" fill="none"/><path d="M170.727 163.414l8.152-7.687M178.88 155.727l-2.583-10.903" stroke-width="1.2" stroke="#00f" stroke-miterlimit="10" fill="none"/><path d="M176.297 144.824l-2.582-10.906" stroke-width="1.2" stroke="#000" stroke-miterlimit="10" fill="none"/><path d="M173.23 154.762l-2.066-8.723" stroke-width="1.2" stroke="#00f" stroke-miterlimit="10" fill="none"/><path d="M171.164 146.04l-2.062-8.724" stroke-width="1.2" stroke="#000" stroke-miterlimit="10" fill="none"/><path d="M175.88 150.227h7v11h-7zm0 0" fill="#fff"/><use xlink:href="#b" x="175.879" y="158.89" fill="#00f"/><path d="M173.715 133.918l8.152-7.688" stroke-width="1.2" stroke="#000" stroke-miterlimit="10" fill="none"/><path d="M181.867 126.23l8.153-7.687M190.02 118.543l10.734 3.22" stroke-width="1.2" stroke="#00f" stroke-miterlimit="10" fill="none"/><path d="M200.754 121.762l10.734 3.215" stroke-width="1.2" stroke="#000" stroke-miterlimit="10" fill="none"/><path d="M183.02 113.043h14v11h-14zm0 0" fill="#fff"/><g fill="#00f"><use xlink:href="#b" x="183.02" y="121.706"/><use xlink:href="#c" x="189.997" y="121.706"/></g><path d="M211.488 124.977l5.164 21.808M217.137 125.94l4.13 17.447M227.793 109.602l-16.305 15.375M216.652 146.785l21.465 6.43M238.117 153.215l16.305-15.375M236.133 147.844l13.043-12.3M238.117 153.215l5.164 21.808M254.422 137.84l-5.164-21.81M249.258 116.03l-21.465-6.428M245.598 120.44l-17.172-5.147M227.793 109.602l-5.164-21.81M242.523 177.55l10.735 3.216" stroke-width="1.2" stroke="#000" stroke-miterlimit="10" fill="none"/><path d="M253.258 180.766l10.734 3.214" stroke-width="1.2" stroke="#f00" stroke-miterlimit="10" fill="none"/><path d="M244.04 172.5l10.733 3.215" stroke-width="1.2" stroke="#000" stroke-miterlimit="10" fill="none"/><path d="M254.773 175.715l10.735 3.215" stroke-width="1.2" stroke="#f00" stroke-miterlimit="10" fill="none"/><path d="M243.28 175.023l-8.15 7.688" stroke-width="1.2" stroke="#000" stroke-miterlimit="10" fill="none"/><path d="M235.13 182.71l-8.153 7.688" stroke-width="1.2" stroke="#00f" stroke-miterlimit="10" fill="none"/><path d="M260.75 175.957h8v11h-8zm0 0" fill="#fff"/><use xlink:href="#d" x="260.75" y="184.62" fill="#f00"/><path d="M226.977 190.398l2.582 10.907" stroke-width="1.2" stroke="#00f" stroke-miterlimit="10" fill="none"/><path d="M229.56 201.305l2.58 10.902" stroke-width="1.2" stroke="#000" stroke-miterlimit="10" fill="none"/><path d="M219.977 184.898h14v11h-14zm0 0" fill="#fff"/><g fill="#00f"><use xlink:href="#b" x="219.977" y="193.562"/><use xlink:href="#c" x="226.954" y="193.562"/></g><path d="M94.195 164.027l-20.257 9.586M89.914 160.22l-16.207 7.667" stroke-width="1.2" stroke="#000" stroke-miterlimit="10" fill="none"/></g></svg>
